client/src/assets/images/icon-stats.svg

<svg fill="none" height="70" viewBox="0 0 70 70" width="70" xmlns="http://www.w3.org/2000/svg"><path clip-rule="evenodd" d="m61.8333.5h-53.66663c-4.21667 0-7.66667 3.45-7.66667 7.66667v53.66663c0 4.2167 3.45 7.6667 7.66667 7.6667h53.66663c4.2167 0 7.6667-3.45 7.6667-7.6667v-53.66663c0-4.21667-3.45-7.66667-7.6667-7.66667zm-38.3333 53.6667h-7.6667v-26.8334h7.6667zm15.3333 0h-7.6666v-38.3334h7.6666zm15.3334 0h-7.6667v-15.3334h7.6667z" fill="#06b9ff" fill-rule="evenodd"/></svg>

<svg width="70" height="70" viewBox="0 0 70 70" fill="none" xmlns="http://www.w3.org/2000/svg">
<path fill-rule="evenodd" clip-rule="evenodd" d="M61.8333 0.5H8.16667C3.95 0.5 0.5 3.95 0.5 8.16667V61.8333C0.5 66.05 3.95 69.5 8.16667 69.5H61.8333C66.05 69.5 69.5 66.05 69.5 61.8333V8.16667C69.5 3.95 66.05 0.5 61.8333 0.5ZM23.5 54.1667H15.8333V27.3333H23.5V54.1667ZM38.8333 54.1667H31.1667V15.8333H38.8333V54.1667ZM54.1667 54.1667H46.5V38.8333H54.1667V54.1667Z" fill="#06B9FF"/>
</svg>
